assets/images/google-play.svg

<svg width="186" height="58" viewBox="0 0 186 58" fill="none" xmlns="http://www.w3.org/2000/svg">
<rect x="1" y="1" width="184" height="56" rx="12" stroke="white" stroke-width="2"/>
<path d="M71.716 34.396C71.716 35.2173 71.518 35.9873 71.122 36.706C70.7407 37.4247 70.132 38.004 69.296 38.444C68.4747 38.884 67.4333 39.104 66.172 39.104H63.598V45H60.518V29.644H66.172C67.36 29.644 68.372 29.8493 69.208 30.26C70.044 30.6707 70.6673 31.2353 71.078 31.954C71.5033 32.6727 71.716 33.4867 71.716 34.396ZM66.04 36.618C66.8907 36.618 67.5213 36.4273 67.932 36.046C68.3427 35.65 68.548 35.1 68.548 34.396C68.548 32.9 67.712 32.152 66.04 32.152H63.598V36.618H66.04ZM76.9828 28.72V45H73.9028V28.72H76.9828ZM79.2338 38.862C79.2338 37.63 79.4758 36.5373 79.9598 35.584C80.4585 34.6307 81.1258 33.8973 81.9618 33.384C82.8125 32.8707 83.7585 32.614 84.7998 32.614C85.7091 32.614 86.5011 32.7973 87.1758 33.164C87.8651 33.5307 88.4151 33.9927 88.8258 34.55V32.812H91.9278V45H88.8258V43.218C88.4298 43.79 87.8798 44.2667 87.1758 44.648C86.4865 45.0147 85.6871 45.198 84.7778 45.198C83.7511 45.198 82.8125 44.934 81.9618 44.406C81.1258 43.878 80.4585 43.1373 79.9598 42.184C79.4758 41.216 79.2338 40.1087 79.2338 38.862ZM88.8258 38.906C88.8258 38.158 88.6791 37.52 88.3858 36.992C88.0925 36.4493 87.6965 36.0387 87.1978 35.76C86.6991 35.4667 86.1638 35.32 85.5918 35.32C85.0198 35.32 84.4918 35.4593 84.0078 35.738C83.5238 36.0167 83.1278 36.4273 82.8198 36.97C82.5265 37.498 82.3798 38.1287 82.3798 38.862C82.3798 39.5953 82.5265 40.2407 82.8198 40.798C83.1278 41.3407 83.5238 41.7587 84.0078 42.052C84.5065 42.3453 85.0345 42.492 85.5918 42.492C86.1638 42.492 86.6991 42.3527 87.1978 42.074C87.6965 41.7807 88.0925 41.37 88.3858 40.842C88.6791 40.2993 88.8258 39.654 88.8258 38.906ZM106.596 32.812L99.05 50.764H95.772L98.412 44.692L93.528 32.812H96.982L100.128 41.326L103.318 32.812H106.596ZM118.8 45.154C117.73 45.154 116.762 44.9707 115.896 44.604C115.046 44.2373 114.371 43.7093 113.872 43.02C113.374 42.3307 113.117 41.5167 113.102 40.578H116.402C116.446 41.2087 116.666 41.7073 117.062 42.074C117.473 42.4407 118.03 42.624 118.734 42.624C119.453 42.624 120.018 42.4553 120.428 42.118C120.839 41.766 121.044 41.3113 121.044 40.754C121.044 40.2993 120.905 39.9253 120.626 39.632C120.348 39.3387 119.996 39.1113 119.57 38.95C119.16 38.774 118.588 38.5833 117.854 38.378C116.857 38.0847 116.043 37.7987 115.412 37.52C114.796 37.2267 114.261 36.794 113.806 36.222C113.366 35.6353 113.146 34.858 113.146 33.89C113.146 32.9807 113.374 32.1887 113.828 31.514C114.283 30.8393 114.921 30.326 115.742 29.974C116.564 29.6073 117.502 29.424 118.558 29.424C120.142 29.424 121.426 29.8127 122.408 30.59C123.406 31.3527 123.956 32.4233 124.058 33.802H120.67C120.641 33.274 120.414 32.8413 119.988 32.504C119.578 32.152 119.028 31.976 118.338 31.976C117.737 31.976 117.253 32.13 116.886 32.438C116.534 32.746 116.358 33.1933 116.358 33.78C116.358 34.1907 116.49 34.5353 116.754 34.814C117.033 35.078 117.37 35.298 117.766 35.474C118.177 35.6353 118.749 35.826 119.482 36.046C120.48 36.3393 121.294 36.6327 121.924 36.926C122.555 37.2193 123.098 37.6593 123.552 38.246C124.007 38.8327 124.234 39.6027 124.234 40.556C124.234 41.3773 124.022 42.14 123.596 42.844C123.171 43.548 122.548 44.1127 121.726 44.538C120.905 44.9487 119.93 45.154 118.8 45.154ZM130.491 35.342V41.238C130.491 41.6487 130.586 41.9493 130.777 42.14C130.982 42.316 131.319 42.404 131.789 42.404H133.219V45H131.283C128.687 45 127.389 43.7387 127.389 41.216V35.342H125.937V32.812H127.389V29.798H130.491V32.812H133.219V35.342H130.491ZM140.846 45.198C139.673 45.198 138.617 44.9413 137.678 44.428C136.739 43.9 135.999 43.1593 135.456 42.206C134.928 41.2527 134.664 40.1527 134.664 38.906C134.664 37.6593 134.935 36.5593 135.478 35.606C136.035 34.6527 136.791 33.9193 137.744 33.406C138.697 32.878 139.761 32.614 140.934 32.614C142.107 32.614 143.171 32.878 144.124 33.406C145.077 33.9193 145.825 34.6527 146.368 35.606C146.925 36.5593 147.204 37.6593 147.204 38.906C147.204 40.1527 146.918 41.2527 146.346 42.206C145.789 43.1593 145.026 43.9 144.058 44.428C143.105 44.9413 142.034 45.198 140.846 45.198ZM140.846 42.514C141.403 42.514 141.924 42.382 142.408 42.118C142.907 41.8393 143.303 41.4287 143.596 40.886C143.889 40.3433 144.036 39.6833 144.036 38.906C144.036 37.7473 143.728 36.86 143.112 36.244C142.511 35.6133 141.77 35.298 140.89 35.298C140.01 35.298 139.269 35.6133 138.668 36.244C138.081 36.86 137.788 37.7473 137.788 38.906C137.788 40.0647 138.074 40.9593 138.646 41.59C139.233 42.206 139.966 42.514 140.846 42.514ZM152.543 34.704C152.939 34.0587 153.453 33.5527 154.083 33.186C154.729 32.8193 155.462 32.636 156.283 32.636V35.87H155.469C154.501 35.87 153.768 36.0973 153.269 36.552C152.785 37.0067 152.543 37.7987 152.543 38.928V45H149.463V32.812H152.543V34.704ZM169.688 38.642C169.688 39.082 169.659 39.478 169.6 39.83H160.69C160.763 40.71 161.071 41.3993 161.614 41.898C162.157 42.3967 162.824 42.646 163.616 42.646C164.76 42.646 165.574 42.1547 166.058 41.172H169.38C169.028 42.3453 168.353 43.3133 167.356 44.076C166.359 44.824 165.134 45.198 163.682 45.198C162.509 45.198 161.453 44.9413 160.514 44.428C159.59 43.9 158.864 43.1593 158.336 42.206C157.823 41.2527 157.566 40.1527 157.566 38.906C157.566 37.6447 157.823 36.5373 158.336 35.584C158.849 34.6307 159.568 33.8973 160.492 33.384C161.416 32.8707 162.479 32.614 163.682 32.614C164.841 32.614 165.875 32.8633 166.784 33.362C167.708 33.8607 168.419 34.572 168.918 35.496C169.431 36.4053 169.688 37.454 169.688 38.642ZM166.498 37.762C166.483 36.97 166.197 36.3393 165.64 35.87C165.083 35.386 164.401 35.144 163.594 35.144C162.831 35.144 162.186 35.3787 161.658 35.848C161.145 36.3027 160.829 36.9407 160.712 37.762H166.498Z" fill="white"/>
<path d="M62.926 13.965C63.888 13.965 64.7287 14.1513 65.448 14.524C66.176 14.888 66.735 15.4167 67.125 16.11C67.5237 16.7947 67.723 17.5963 67.723 18.515C67.723 19.4337 67.5237 20.231 67.125 20.907C66.735 21.583 66.176 22.103 65.448 22.467C64.7287 22.8223 63.888 23 62.926 23H59.975V13.965H62.926ZM62.926 21.791C63.9833 21.791 64.7937 21.505 65.357 20.933C65.9203 20.361 66.202 19.555 66.202 18.515C66.202 17.4663 65.9203 16.6473 65.357 16.058C64.7937 15.4687 63.9833 15.174 62.926 15.174H61.457V21.791H62.926ZM72.2988 23.117C71.6228 23.117 71.0118 22.9653 70.4658 22.662C69.9198 22.35 69.4908 21.9167 69.1788 21.362C68.8668 20.7987 68.7108 20.1487 68.7108 19.412C68.7108 18.684 68.8711 18.0383 69.1918 17.475C69.5125 16.9117 69.9501 16.4783 70.5048 16.175C71.0595 15.8717 71.6791 15.72 72.3638 15.72C73.0485 15.72 73.6681 15.8717 74.2228 16.175C74.7775 16.4783 75.2151 16.9117 75.5358 17.475C75.8565 18.0383 76.0168 18.684 76.0168 19.412C76.0168 20.14 75.8521 20.7857 75.5228 21.349C75.1935 21.9123 74.7428 22.35 74.1708 22.662C73.6075 22.9653 72.9835 23.117 72.2988 23.117ZM72.2988 21.83C72.6801 21.83 73.0355 21.739 73.3648 21.557C73.7028 21.375 73.9758 21.102 74.1838 20.738C74.3918 20.374 74.4958 19.932 74.4958 19.412C74.4958 18.892 74.3961 18.4543 74.1968 18.099C73.9975 17.735 73.7331 17.462 73.4038 17.28C73.0745 17.098 72.7191 17.007 72.3378 17.007C71.9565 17.007 71.6011 17.098 71.2718 17.28C70.9511 17.462 70.6955 17.735 70.5048 18.099C70.3141 18.4543 70.2188 18.892 70.2188 19.412C70.2188 20.1833 70.4138 20.7813 70.8038 21.206C71.2025 21.622 71.7008 21.83 72.2988 21.83ZM87.1018 15.837L84.8788 23H83.3188L81.8758 17.709L80.4328 23H78.8728L76.6368 15.837H78.1448L79.6398 21.596L81.1608 15.837H82.7078L84.1638 21.57L85.6458 15.837H87.1018ZM91.8234 15.72C92.3867 15.72 92.8894 15.837 93.3314 16.071C93.782 16.305 94.133 16.6517 94.3844 17.111C94.6357 17.5703 94.7614 18.125 94.7614 18.775V23H93.2924V18.996C93.2924 18.3547 93.132 17.865 92.8114 17.527C92.4907 17.1803 92.053 17.007 91.4984 17.007C90.9437 17.007 90.5017 17.1803 90.1724 17.527C89.8517 17.865 89.6914 18.3547 89.6914 18.996V23H88.2094V15.837H89.6914V16.656C89.934 16.3613 90.2417 16.1317 90.6144 15.967C90.9957 15.8023 91.3987 15.72 91.8234 15.72ZM98.1338 13.38V23H96.6518V13.38H98.1338ZM103.186 23.117C102.51 23.117 101.899 22.9653 101.353 22.662C100.807 22.35 100.378 21.9167 100.066 21.362C99.7545 20.7987 99.5985 20.1487 99.5985 19.412C99.5985 18.684 99.7588 18.0383 100.079 17.475C100.4 16.9117 100.838 16.4783 101.392 16.175C101.947 15.8717 102.567 15.72 103.251 15.72C103.936 15.72 104.556 15.8717 105.11 16.175C105.665 16.4783 106.103 16.9117 106.423 17.475C106.744 18.0383 106.904 18.684 106.904 19.412C106.904 20.14 106.74 20.7857 106.41 21.349C106.081 21.9123 105.63 22.35 105.058 22.662C104.495 22.9653 103.871 23.117 103.186 23.117ZM103.186 21.83C103.568 21.83 103.923 21.739 104.252 21.557C104.59 21.375 104.863 21.102 105.071 20.738C105.279 20.374 105.383 19.932 105.383 19.412C105.383 18.892 105.284 18.4543 105.084 18.099C104.885 17.735 104.621 17.462 104.291 17.28C103.962 17.098 103.607 17.007 103.225 17.007C102.844 17.007 102.489 17.098 102.159 17.28C101.839 17.462 101.583 17.735 101.392 18.099C101.202 18.4543 101.106 18.892 101.106 19.412C101.106 20.1833 101.301 20.7813 101.691 21.206C102.09 21.622 102.588 21.83 103.186 21.83ZM107.876 19.386C107.876 18.6667 108.023 18.0297 108.318 17.475C108.621 16.9203 109.028 16.4913 109.54 16.188C110.06 15.876 110.632 15.72 111.256 15.72C111.819 15.72 112.309 15.8327 112.725 16.058C113.149 16.2747 113.487 16.5477 113.739 16.877V15.837H115.234V23H113.739V21.934C113.487 22.272 113.145 22.5537 112.712 22.779C112.278 23.0043 111.784 23.117 111.23 23.117C110.614 23.117 110.051 22.961 109.54 22.649C109.028 22.3283 108.621 21.8863 108.318 21.323C108.023 20.751 107.876 20.1053 107.876 19.386ZM113.739 19.412C113.739 18.918 113.635 18.489 113.427 18.125C113.227 17.761 112.963 17.4837 112.634 17.293C112.304 17.1023 111.949 17.007 111.568 17.007C111.186 17.007 110.831 17.1023 110.502 17.293C110.172 17.475 109.904 17.748 109.696 18.112C109.496 18.4673 109.397 18.892 109.397 19.386C109.397 19.88 109.496 20.3133 109.696 20.686C109.904 21.0587 110.172 21.3447 110.502 21.544C110.84 21.7347 111.195 21.83 111.568 21.83C111.949 21.83 112.304 21.7347 112.634 21.544C112.963 21.3533 113.227 21.076 113.427 20.712C113.635 20.3393 113.739 19.906 113.739 19.412ZM116.686 19.386C116.686 18.6667 116.833 18.0297 117.128 17.475C117.431 16.9203 117.839 16.4913 118.35 16.188C118.87 15.876 119.446 15.72 120.079 15.72C120.547 15.72 121.006 15.824 121.457 16.032C121.916 16.2313 122.28 16.5 122.549 16.838V13.38H124.044V23H122.549V21.921C122.306 22.2677 121.968 22.5537 121.535 22.779C121.11 23.0043 120.621 23.117 120.066 23.117C119.442 23.117 118.87 22.961 118.35 22.649C117.839 22.3283 117.431 21.8863 117.128 21.323C116.833 20.751 116.686 20.1053 116.686 19.386ZM122.549 19.412C122.549 18.918 122.445 18.489 122.237 18.125C122.038 17.761 121.773 17.4837 121.444 17.293C121.115 17.1023 120.759 17.007 120.378 17.007C119.997 17.007 119.641 17.1023 119.312 17.293C118.983 17.475 118.714 17.748 118.506 18.112C118.307 18.4673 118.207 18.892 118.207 19.386C118.207 19.88 118.307 20.3133 118.506 20.686C118.714 21.0587 118.983 21.3447 119.312 21.544C119.65 21.7347 120.005 21.83 120.378 21.83C120.759 21.83 121.115 21.7347 121.444 21.544C121.773 21.3533 122.038 21.076 122.237 20.712C122.445 20.3393 122.549 19.906 122.549 19.412ZM132.475 23.117C131.799 23.117 131.188 22.9653 130.642 22.662C130.096 22.35 129.667 21.9167 129.355 21.362C129.043 20.7987 128.887 20.1487 128.887 19.412C128.887 18.684 129.047 18.0383 129.368 17.475C129.688 16.9117 130.126 16.4783 130.681 16.175C131.235 15.8717 131.855 15.72 132.54 15.72C133.224 15.72 133.844 15.8717 134.399 16.175C134.953 16.4783 135.391 16.9117 135.712 17.475C136.032 18.0383 136.193 18.684 136.193 19.412C136.193 20.14 136.028 20.7857 135.699 21.349C135.369 21.9123 134.919 22.35 134.347 22.662C133.783 22.9653 133.159 23.117 132.475 23.117ZM132.475 21.83C132.856 21.83 133.211 21.739 133.541 21.557C133.879 21.375 134.152 21.102 134.36 20.738C134.568 20.374 134.672 19.932 134.672 19.412C134.672 18.892 134.572 18.4543 134.373 18.099C134.173 17.735 133.909 17.462 133.58 17.28C133.25 17.098 132.895 17.007 132.514 17.007C132.132 17.007 131.777 17.098 131.448 17.28C131.127 17.462 130.871 17.735 130.681 18.099C130.49 18.4543 130.395 18.892 130.395 19.412C130.395 20.1833 130.59 20.7813 130.98 21.206C131.378 21.622 131.877 21.83 132.475 21.83ZM141.272 15.72C141.835 15.72 142.338 15.837 142.78 16.071C143.23 16.305 143.581 16.6517 143.833 17.111C144.084 17.5703 144.21 18.125 144.21 18.775V23H142.741V18.996C142.741 18.3547 142.58 17.865 142.26 17.527C141.939 17.1803 141.501 17.007 140.947 17.007C140.392 17.007 139.95 17.1803 139.621 17.527C139.3 17.865 139.14 18.3547 139.14 18.996V23H137.658V15.837H139.14V16.656C139.382 16.3613 139.69 16.1317 140.063 15.967C140.444 15.8023 140.847 15.72 141.272 15.72ZM151.206 17.046V21.011C151.206 21.2797 151.267 21.4747 151.388 21.596C151.518 21.7087 151.735 21.765 152.038 21.765H152.948V23H151.778C151.111 23 150.599 22.844 150.244 22.532C149.889 22.22 149.711 21.713 149.711 21.011V17.046H148.866V15.837H149.711V14.056H151.206V15.837H152.948V17.046H151.206ZM158.019 15.72C158.565 15.72 159.05 15.837 159.475 16.071C159.908 16.305 160.246 16.6517 160.489 17.111C160.74 17.5703 160.866 18.125 160.866 18.775V23H159.397V18.996C159.397 18.3547 159.237 17.865 158.916 17.527C158.595 17.1803 158.158 17.007 157.603 17.007C157.048 17.007 156.606 17.1803 156.277 17.527C155.956 17.865 155.796 18.3547 155.796 18.996V23H154.314V13.38H155.796V16.669C156.047 16.3657 156.364 16.1317 156.745 15.967C157.135 15.8023 157.56 15.72 158.019 15.72ZM169.321 19.243C169.321 19.5117 169.304 19.7543 169.269 19.971H163.796C163.84 20.543 164.052 21.0023 164.433 21.349C164.815 21.6957 165.283 21.869 165.837 21.869C166.635 21.869 167.198 21.5353 167.527 20.868H169.126C168.91 21.5267 168.515 22.0683 167.943 22.493C167.38 22.909 166.678 23.117 165.837 23.117C165.153 23.117 164.537 22.9653 163.991 22.662C163.454 22.35 163.029 21.9167 162.717 21.362C162.414 20.7987 162.262 20.1487 162.262 19.412C162.262 18.6753 162.41 18.0297 162.704 17.475C163.008 16.9117 163.428 16.4783 163.965 16.175C164.511 15.8717 165.135 15.72 165.837 15.72C166.513 15.72 167.116 15.8673 167.644 16.162C168.173 16.4567 168.585 16.8727 168.879 17.41C169.174 17.9387 169.321 18.5497 169.321 19.243ZM167.774 18.775C167.766 18.229 167.571 17.7913 167.189 17.462C166.808 17.1327 166.336 16.968 165.772 16.968C165.261 16.968 164.823 17.1327 164.459 17.462C164.095 17.7827 163.879 18.2203 163.809 18.775H167.774Z" fill="white"/>
<path d="M24.0875 11.6699L41.7411 22.89L36.7189 28.4162L20.8915 11.1675C21.1959 11.1675 21.6525 11.0001 21.9568 11.0001C22.7178 11.0001 23.4787 11.1675 24.0875 11.6699ZM18 43.4879V15.3541C18 14.0144 18.6087 12.8422 19.5219 12.0049L35.5014 29.5885L19.674 47.0047C18.6087 46.1673 18 44.8276 18 43.4879ZM24.0875 47.3396C23.1743 47.842 22.109 48.0094 21.1959 47.842L36.7189 30.9282L41.5889 36.287L24.0875 47.3396ZM46.1545 33.2727L42.9586 35.2822L37.632 29.5885L42.9586 23.7273L46.0023 25.7368C47.2198 26.5742 47.9807 27.9139 47.9807 29.5885C48.1329 30.9282 47.372 32.4354 46.1545 33.2727Z" fill="white"/>
</svg>

<svg width="186" height="58" fill="none" xmlns="http://www.w3.org/2000/svg"><rect x="1" y="1" width="184" height="56" rx="12" stroke="#fff" stroke-width="2"/><path d="M71.716 34.396c0 .821-.198 1.591-.594 2.31-.381.719-.99 1.298-1.826 1.738-.821.44-1.863.66-3.124.66h-2.574V45h-3.08V29.644h5.654c1.188 0 2.2.205 3.036.616.836.41 1.46.975 1.87 1.694.425.719.638 1.533.638 2.442Zm-5.676 2.222c.85 0 1.481-.19 1.892-.572.41-.396.616-.946.616-1.65 0-1.496-.836-2.244-2.508-2.244h-2.442v4.466h2.442Zm10.943-7.898V45h-3.08V28.72h3.08Zm2.25 10.142c0-1.232.243-2.325.727-3.278.499-.953 1.166-1.687 2.002-2.2.85-.513 1.796-.77 2.838-.77.91 0 1.701.183 2.376.55.69.367 1.24.829 1.65 1.386v-1.738h3.102V45h-3.102v-1.782c-.396.572-.946 1.049-1.65 1.43-.69.367-1.489.55-2.398.55a5.235 5.235 0 0 1-2.816-.792c-.836-.528-1.504-1.269-2.002-2.222-.484-.968-.726-2.075-.726-3.322Zm9.593.044c0-.748-.147-1.386-.44-1.914a3.01 3.01 0 0 0-1.188-1.232 3.115 3.115 0 0 0-1.606-.44c-.572 0-1.1.14-1.584.418-.484.279-.88.69-1.188 1.232-.293.528-.44 1.159-.44 1.892 0 .733.147 1.379.44 1.936.308.543.704.96 1.188 1.254.499.293 1.026.44 1.584.44a3.24 3.24 0 0 0 1.606-.418 3.2 3.2 0 0 0 1.188-1.232c.293-.543.44-1.188.44-1.936Zm17.77-6.094L99.05 50.764h-3.278l2.64-6.072-4.884-11.88h3.454l3.146 8.514 3.19-8.514h3.278ZM118.8 45.154c-1.07 0-2.038-.183-2.904-.55-.85-.367-1.525-.895-2.024-1.584-.498-.69-.755-1.503-.77-2.442h3.3c.044.63.264 1.13.66 1.496.411.367.968.55 1.672.55.719 0 1.284-.169 1.694-.506.411-.352.616-.807.616-1.364 0-.455-.139-.829-.418-1.122a2.788 2.788 0 0 0-1.056-.682c-.41-.176-.982-.367-1.716-.572-.997-.293-1.811-.58-2.442-.858a4.528 4.528 0 0 1-1.606-1.298c-.44-.587-.66-1.364-.66-2.332 0-.91.228-1.701.682-2.376.455-.675 1.093-1.188 1.914-1.54.822-.367 1.76-.55 2.816-.55 1.584 0 2.868.389 3.85 1.166.998.763 1.548 1.833 1.65 3.212h-3.388a1.71 1.71 0 0 0-.682-1.298c-.41-.352-.96-.528-1.65-.528-.601 0-1.085.154-1.452.462-.352.308-.528.755-.528 1.342 0 .41.132.755.396 1.034.279.264.616.484 1.012.66.411.161.983.352 1.716.572.998.293 1.812.587 2.442.88a4.377 4.377 0 0 1 1.628 1.32c.455.587.682 1.357.682 2.31a4.34 4.34 0 0 1-.638 2.288c-.425.704-1.048 1.269-1.87 1.694-.821.41-1.796.616-2.926.616Zm11.691-9.812v5.896c0 .41.095.711.286.902.205.176.542.264 1.012.264h1.43V45h-1.936c-2.596 0-3.894-1.261-3.894-3.784v-5.874h-1.452v-2.53h1.452v-3.014h3.102v3.014h2.728v2.53h-2.728Zm10.355 9.856c-1.173 0-2.229-.257-3.168-.77a5.776 5.776 0 0 1-2.222-2.222c-.528-.953-.792-2.053-.792-3.3 0-1.247.271-2.347.814-3.3a5.732 5.732 0 0 1 2.266-2.2c.953-.528 2.017-.792 3.19-.792s2.237.264 3.19.792a5.588 5.588 0 0 1 2.244 2.2c.557.953.836 2.053.836 3.3 0 1.247-.286 2.347-.858 3.3a5.844 5.844 0 0 1-2.288 2.222c-.953.513-2.024.77-3.212.77Zm0-2.684c.557 0 1.078-.132 1.562-.396.499-.279.895-.69 1.188-1.232.293-.543.44-1.203.44-1.98 0-1.159-.308-2.046-.924-2.662-.601-.63-1.342-.946-2.222-.946-.88 0-1.621.315-2.222.946-.587.616-.88 1.503-.88 2.662s.286 2.053.858 2.684c.587.616 1.32.924 2.2.924Zm11.697-7.81a4.365 4.365 0 0 1 1.54-1.518c.646-.367 1.379-.55 2.2-.55v3.234h-.814c-.968 0-1.701.227-2.2.682-.484.455-.726 1.247-.726 2.376V45h-3.08V32.812h3.08v1.892Zm17.145 3.938c0 .44-.029.836-.088 1.188h-8.91c.073.88.381 1.57.924 2.068.543.499 1.21.748 2.002.748 1.144 0 1.958-.491 2.442-1.474h3.322c-.352 1.173-1.027 2.141-2.024 2.904-.997.748-2.222 1.122-3.674 1.122-1.173 0-2.229-.257-3.168-.77a5.668 5.668 0 0 1-2.178-2.222c-.513-.953-.77-2.053-.77-3.3 0-1.261.257-2.369.77-3.322a5.37 5.37 0 0 1 2.156-2.2c.924-.513 1.987-.77 3.19-.77 1.159 0 2.193.25 3.102.748a5.162 5.162 0 0 1 2.134 2.134c.513.91.77 1.958.77 3.146Zm-3.19-.88c-.015-.792-.301-1.423-.858-1.892-.557-.484-1.239-.726-2.046-.726-.763 0-1.408.235-1.936.704-.513.455-.829 1.093-.946 1.914h5.786ZM62.926 13.965c.962 0 1.803.186 2.522.559a3.855 3.855 0 0 1 1.677 1.586c.399.685.598 1.486.598 2.405 0 .919-.2 1.716-.598 2.392a3.898 3.898 0 0 1-1.677 1.56c-.72.355-1.56.533-2.522.533h-2.951v-9.035h2.951Zm0 7.826c1.057 0 1.868-.286 2.431-.858.563-.572.845-1.378.845-2.418 0-1.049-.282-1.868-.845-2.457-.563-.59-1.374-.884-2.431-.884h-1.469v6.617h1.469Zm9.373 1.326a3.71 3.71 0 0 1-1.833-.455 3.373 3.373 0 0 1-1.287-1.3c-.312-.563-.468-1.213-.468-1.95 0-.728.16-1.374.48-1.937.322-.563.76-.997 1.314-1.3a3.81 3.81 0 0 1 1.859-.455 3.81 3.81 0 0 1 1.859.455c.555.303.992.737 1.313 1.3.32.563.48 1.209.48 1.937s-.164 1.374-.493 1.937a3.454 3.454 0 0 1-1.352 1.313 3.885 3.885 0 0 1-1.872.455Zm0-1.287c.381 0 .736-.091 1.066-.273.338-.182.61-.455.819-.819.208-.364.312-.806.312-1.326s-.1-.958-.3-1.313a2.01 2.01 0 0 0-.792-.819 2.169 2.169 0 0 0-1.066-.273c-.381 0-.737.091-1.066.273-.32.182-.577.455-.767.819-.19.355-.286.793-.286 1.313 0 .771.195 1.37.585 1.794.398.416.897.624 1.495.624Zm14.803-5.993L84.879 23h-1.56l-1.443-5.291L80.433 23h-1.56l-2.236-7.163h1.508l1.495 5.759 1.52-5.759h1.548l1.456 5.733 1.482-5.733h1.456Zm4.721-.117c.564 0 1.066.117 1.508.351.451.234.802.58 1.053 1.04.252.46.377 1.014.377 1.664V23h-1.469v-4.004c0-.641-.16-1.131-.48-1.469-.321-.347-.759-.52-1.314-.52-.554 0-.996.173-1.326.52-.32.338-.48.828-.48 1.469V23h-1.483v-7.163h1.482v.819c.243-.295.55-.524.923-.689a3.017 3.017 0 0 1 1.21-.247Zm6.31-2.34V23h-1.481v-9.62h1.482Zm5.053 9.737a3.71 3.71 0 0 1-1.833-.455 3.373 3.373 0 0 1-1.287-1.3c-.312-.563-.468-1.213-.468-1.95 0-.728.16-1.374.481-1.937a3.329 3.329 0 0 1 1.313-1.3 3.813 3.813 0 0 1 1.859-.455c.685 0 1.305.152 1.859.455.555.303.993.737 1.313 1.3.321.563.481 1.209.481 1.937s-.164 1.374-.494 1.937a3.452 3.452 0 0 1-1.352 1.313 3.883 3.883 0 0 1-1.872.455Zm0-1.287c.382 0 .737-.091 1.066-.273.338-.182.611-.455.819-.819.208-.364.312-.806.312-1.326s-.099-.958-.299-1.313a2.003 2.003 0 0 0-.793-.819 2.166 2.166 0 0 0-1.066-.273c-.381 0-.736.091-1.066.273a1.96 1.96 0 0 0-.767.819c-.19.355-.286.793-.286 1.313 0 .771.195 1.37.585 1.794.399.416.897.624 1.495.624Zm4.69-2.444c0-.72.147-1.356.442-1.911a3.294 3.294 0 0 1 2.938-1.755c.563 0 1.053.113 1.469.338.424.217.762.49 1.014.819v-1.04h1.495V23h-1.495v-1.066c-.252.338-.594.62-1.027.845-.434.225-.928.338-1.482.338a3.18 3.18 0 0 1-1.69-.468 3.466 3.466 0 0 1-1.222-1.326c-.295-.572-.442-1.218-.442-1.937Zm5.863.026c0-.494-.104-.923-.312-1.287a2.107 2.107 0 0 0-.793-.832 2.094 2.094 0 0 0-1.066-.286c-.382 0-.737.095-1.066.286a2.09 2.09 0 0 0-.806.819c-.2.355-.299.78-.299 1.274s.099.927.299 1.3c.208.373.476.659.806.858a2.137 2.137 0 0 0 2.132 0c.329-.19.593-.468.793-.832.208-.373.312-.806.312-1.3Zm2.947-.026c0-.72.147-1.356.442-1.911a3.3 3.3 0 0 1 2.951-1.755c.468 0 .927.104 1.378.312.459.2.823.468 1.092.806V13.38h1.495V23h-1.495v-1.079a2.767 2.767 0 0 1-1.014.858c-.425.225-.914.338-1.469.338a3.273 3.273 0 0 1-1.716-.468 3.474 3.474 0 0 1-1.222-1.326c-.295-.572-.442-1.218-.442-1.937Zm5.863.026c0-.494-.104-.923-.312-1.287a2.1 2.1 0 0 0-.793-.832 2.091 2.091 0 0 0-1.066-.286c-.381 0-.737.095-1.066.286a2.096 2.096 0 0 0-.806.819c-.199.355-.299.78-.299 1.274s.1.927.299 1.3c.208.373.477.659.806.858a2.137 2.137 0 0 0 2.132 0 2.1 2.1 0 0 0 .793-.832c.208-.373.312-.806.312-1.3Zm9.926 3.705a3.71 3.71 0 0 1-1.833-.455 3.373 3.373 0 0 1-1.287-1.3c-.312-.563-.468-1.213-.468-1.95 0-.728.16-1.374.481-1.937.32-.563.758-.997 1.313-1.3a3.808 3.808 0 0 1 1.859-.455c.684 0 1.304.152 1.859.455.554.303.992.737 1.313 1.3.32.563.481 1.209.481 1.937s-.165 1.374-.494 1.937a3.46 3.46 0 0 1-1.352 1.313 3.889 3.889 0 0 1-1.872.455Zm0-1.287c.381 0 .736-.091 1.066-.273.338-.182.611-.455.819-.819.208-.364.312-.806.312-1.326s-.1-.958-.299-1.313a2.015 2.015 0 0 0-.793-.819 2.171 2.171 0 0 0-1.066-.273c-.382 0-.737.091-1.066.273a1.947 1.947 0 0 0-.767.819c-.191.355-.286.793-.286 1.313 0 .771.195 1.37.585 1.794.398.416.897.624 1.495.624Zm8.797-6.11c.563 0 1.066.117 1.508.351.45.234.801.58 1.053 1.04.251.46.377 1.014.377 1.664V23h-1.469v-4.004c0-.641-.161-1.131-.481-1.469-.321-.347-.759-.52-1.313-.52-.555 0-.997.173-1.326.52-.321.338-.481.828-.481 1.469V23h-1.482v-7.163h1.482v.819c.242-.295.55-.524.923-.689a3.014 3.014 0 0 1 1.209-.247Zm9.934 1.326v3.965c0 .269.061.464.182.585.13.113.347.169.65.169h.91V23h-1.17c-.667 0-1.179-.156-1.534-.468-.355-.312-.533-.819-.533-1.521v-3.965h-.845v-1.209h.845v-1.781h1.495v1.781h1.742v1.209h-1.742Zm6.813-1.326c.546 0 1.031.117 1.456.351.433.234.771.58 1.014 1.04.251.46.377 1.014.377 1.664V23h-1.469v-4.004c0-.641-.16-1.131-.481-1.469-.321-.347-.758-.52-1.313-.52-.555 0-.997.173-1.326.52-.321.338-.481.828-.481 1.469V23h-1.482v-9.62h1.482v3.289c.251-.303.568-.537.949-.702.39-.165.815-.247 1.274-.247Zm11.302 3.523c0 .269-.017.511-.052.728h-5.473c.044.572.256 1.031.637 1.378.382.347.85.52 1.404.52.798 0 1.361-.334 1.69-1.001h1.599a3.244 3.244 0 0 1-1.183 1.625c-.563.416-1.265.624-2.106.624-.684 0-1.3-.152-1.846-.455a3.403 3.403 0 0 1-1.274-1.3c-.303-.563-.455-1.213-.455-1.95 0-.737.148-1.382.442-1.937a3.204 3.204 0 0 1 1.261-1.3c.546-.303 1.17-.455 1.872-.455.676 0 1.279.147 1.807.442.529.295.941.71 1.235 1.248.295.529.442 1.14.442 1.833Zm-1.547-.468c-.008-.546-.203-.984-.585-1.313-.381-.33-.853-.494-1.417-.494a1.89 1.89 0 0 0-1.313.494c-.364.32-.58.758-.65 1.313h3.965ZM24.087 11.67l17.654 11.22-5.022 5.526L20.89 11.168c.305 0 .762-.168 1.066-.168.76 0 1.522.168 2.13.67ZM18 43.488V15.354c0-1.34.609-2.512 1.522-3.35l15.98 17.584-15.828 17.417C18.609 46.167 18 44.828 18 43.488Zm6.087 3.852c-.913.502-1.978.67-2.891.502l15.523-16.914 4.87 5.359L24.087 47.34Zm22.067-14.067-3.195 2.01-5.327-5.695 5.327-5.86 3.043 2.009c1.218.837 1.979 2.177 1.979 3.852.152 1.34-.609 2.846-1.827 3.684Z" fill="#fff"/></svg>
